!!!OTL: Der schwatzhafte Junggeselle Es waren drei Gesellen,
!!!ARE: Europa, Osteuropa, UdSSR, Wolga - Gebiet, Neu - Galga
!!!YOR: 6, S. 278
!!    ????
!!!SCT: Q0139H
!!!YEM: Copyright 1995, estate of Helmut Schaffrath.
**kern
*ICvox
*Ivox
*M4/4
*k[b-]
*F:
{8c
=1
4f
8e
8d
4c
4b-
=2
4a
4cc
8f
4r}
{8c
=3
4f
8e
8d
4c
4b-
=4
4a
4cc
8f
8r}
{8f
8g
=5
8.a
16a
16a
16a
8a
4a
8g
8a
=6
8b-
8b-
8a
8a
4.g}
{8a
=7
4g
8g
8g
4g
8f
8g
=8
8a
8b-
8a
8g
4f
8r}
==
!!!AGN: Ballade, Indiskretion, verweigerter Beischlaf
!! Zweistimmig notiert, Oberstimme kodiert.
!!!ONB: ESAC (Essen Associative Code) Database: BALLADE
!!!AMT: simple quadruple
!!!AIN: vox
!!!EED: Helmut Schaffrath
!!!EEV: 1.0
*-
